svg/color/pipe.svg

<svg xmlns="http://www.w3.org/2000/svg" width="1238" height="1238" fill="none" viewBox="0 0 1238 1238"><path fill="#E7FE7F" d="M630.105 607.892c-74.082-74.082-194.056-74.219-267.97-.306L2.255 967.466c74.001-72.786 193.131-72.274 266.836 1.43s74.215 192.844 1.425 266.844l.009.01 359.886-359.889c73.914-73.913 73.777-193.887-.306-267.969"/><path fill="#E7FE7F" d="M645.886 55.562c-74.082-74.082-194.193-74.082-268.276 0L0 433.17c74.17-72.952 193.434-72.576 267.139 1.128 73.706 73.706 74.081 192.974 1.123 267.143l.009.009 377.615-377.614c74.083-74.082 74.083-194.192 0-268.274m536.554 536.549c-74.08-74.082-194.195-74.082-268.278 0L536.552 969.72c74.169-72.953 193.434-72.577 267.139 1.128 73.706 73.702 74.08 192.972 1.123 267.142l.009.01 377.617-377.614c74.08-74.082 74.08-194.193 0-268.275"/><path fill="#E7FE7F" d="M1182.44 55.562c-74.08-74.082-194.195-74.082-268.278 0L554.587 415.135c74.169-72.953 193.435-72.577 267.139 1.128 73.707 73.706 74.081 192.974 1.123 267.143l.009.009 359.582-359.579c74.08-74.082 74.08-194.192 0-268.274"/></svg>

<svg width="1238" height="1238" viewBox="0 0 1238 1238" fill="none" xmlns="http://www.w3.org/2000/svg">
<path d="M630.105 607.892C556.023 533.81 436.049 533.673 362.135 607.586L2.2544 967.466C76.2561 894.68 195.386 895.192 269.091 968.896C342.797 1042.6 343.306 1161.74 270.516 1235.74L270.525 1235.75L630.411 875.861C704.325 801.948 704.188 681.974 630.105 607.892Z" fill="#E7FE7F"/>
<path d="M645.886 55.5616C571.804 -18.5205 451.693 -18.5205 377.61 55.5616L0 433.17C74.1692 360.218 193.434 360.594 267.139 434.298C340.845 508.004 341.22 627.272 268.262 701.441L268.271 701.45L645.886 323.836C719.969 249.754 719.969 129.644 645.886 55.5616Z" fill="#E7FE7F"/>
<path d="M1182.44 592.111C1108.36 518.029 988.245 518.029 914.162 592.111L536.552 969.72C610.721 896.767 729.986 897.143 803.691 970.848C877.397 1044.55 877.771 1163.82 804.814 1237.99L804.823 1238L1182.44 860.386C1256.52 786.304 1256.52 666.193 1182.44 592.111Z" fill="#E7FE7F"/>
<path d="M1182.44 55.5616C1108.36 -18.5205 988.245 -18.5205 914.162 55.5616L554.587 415.135C628.756 342.182 748.022 342.558 821.726 416.263C895.433 489.969 895.807 609.237 822.849 683.406L822.858 683.415L1182.44 323.836C1256.52 249.754 1256.52 129.644 1182.44 55.5616Z" fill="#E7FE7F"/>
</svg>
